apps/front/src/app/landing/img/desktop.svg

<svg xmlns="http://www.w3.org/2000/svg" width="900" height="600"><g fill="#fff"><path d="M0 0h900v600H0z"/><path d="M520 600l8.7-14.3c8.6-14.4 26-43 4-71.5s-83.4-56.9-95-85.4C426 400.3 464 371.7 461.8 343c-2.1-28.7-44.5-57.3-63.5-86s-14.6-57.3 12-85.8c26.7-28.5 75.7-56.9 86.5-85.4 10.9-28.5-16.5-57.1-30.1-71.5L453 0h447v14.3 71.5 85.4V257v86 85.8 85.4 71.5V600z"/></g><path d="M565 600l-17-14.3c-17-14.4-51-43-46-71.5s49-56.9 49-85.4-44-57.1-63-85.8-13-57.3-10-86 3-57.3 6.2-85.8c3.1-28.5 9.5-56.9 34.3-85.4s68.2-57.1 89.8-71.5L630 0h270v14.3 71.5 85.4V257v86 85.8 85.4 71.5V600z" fill="#ecd8ff"/><path d="M605 600l-.8-14.3c-.9-14.4-2.5-43 6.1-71.5 8.7-28.5 27.7-56.9 21-85.4-6.6-28.5-39-57.1-39.3-85.8s31.3-57.3 37.2-86c5.8-28.7-14.2-57.3-10.7-85.8s30.5-56.9 40-85.4 1.5-57.1-2.5-71.5L652 0h248v14.3 71.5 85.4V257v86 85.8 85.4 71.5V600z" fill="#d7b1ff"/><path d="M637 600l-3.2-14.3c-3.1-14.4-9.5-43-8.5-71.5s9.4-56.9 24.2-85.4 36.2-57.1 34.2-85.8-27.4-57.3-23.7-86 36.3-57.3 38.2-85.8c1.8-28.5-27.2-56.9-42.7-85.4S638 28.7 637 14.3L636 0h264v14.3 71.5 85.4V257v86 85.8 85.4 71.5V600z" fill="#c08bff"/><path d="M771 600l-7.2-14.3c-7.1-14.4-21.5-43-24.6-71.5-3.2-28.5 4.8-56.9 1.3-85.4S722 371.7 729.3 343c7.4-28.7 37-57.3 44-86s-8.6-57.3-19.6-85.8-17.4-56.9-18.2-85.4 3.8-57.1 6.2-71.5L744 0h156v14.3 71.5 85.4V257v86 85.8 85.4 71.5V600z" fill="#a563ff"/><path d="M834 600l-9.2-14.3c-9.1-14.4-27.5-43-31.3-71.5s6.8-56.9 15-85.4 13.8-57.1 16.2-85.8c2.3-28.7 1.3-57.3-.4-86-1.6-28.7-4-57.3-2-85.8s8.4-56.9 1.7-85.4-26.3-57.1-36.2-71.5L778 0h122v14.3 71.5 85.4V257v86 85.8 85.4 71.5V600z" fill="#8338ff"/></svg>

<svg id="visual" viewBox="0 0 900 600" width="900" height="600" xmlns="http://www.w3.org/2000/svg" xmlns:xlink="http://www.w3.org/1999/xlink" version="1.1"><rect x="0" y="0" width="900" height="600" fill="#fff"></rect><path d="M520 600L528.7 585.7C537.3 571.3 554.7 542.7 532.7 514.2C510.7 485.7 449.3 457.3 437.7 428.8C426 400.3 464 371.7 461.8 343C459.7 314.3 417.3 285.7 398.3 257C379.3 228.3 383.7 199.7 410.3 171.2C437 142.7 486 114.3 496.8 85.8C507.7 57.3 480.3 28.7 466.7 14.3L453 0L900 0L900 14.3C900 28.7 900 57.3 900 85.8C900 114.3 900 142.7 900 171.2C900 199.7 900 228.3 900 257C900 285.7 900 314.3 900 343C900 371.7 900 400.3 900 428.8C900 457.3 900 485.7 900 514.2C900 542.7 900 571.3 900 585.7L900 600Z" fill="#ffffff"></path><path d="M565 600L548 585.7C531 571.3 497 542.7 502 514.2C507 485.7 551 457.3 551 428.8C551 400.3 507 371.7 488 343C469 314.3 475 285.7 478 257C481 228.3 481 199.7 484.2 171.2C487.3 142.7 493.7 114.3 518.5 85.8C543.3 57.3 586.7 28.7 608.3 14.3L630 0L900 0L900 14.3C900 28.7 900 57.3 900 85.8C900 114.3 900 142.7 900 171.2C900 199.7 900 228.3 900 257C900 285.7 900 314.3 900 343C900 371.7 900 400.3 900 428.8C900 457.3 900 485.7 900 514.2C900 542.7 900 571.3 900 585.7L900 600Z" fill="#ecd8ff"></path><path d="M605 600L604.2 585.7C603.3 571.3 601.7 542.7 610.3 514.2C619 485.7 638 457.3 631.3 428.8C624.7 400.3 592.3 371.7 592 343C591.7 314.3 623.3 285.7 629.2 257C635 228.3 615 199.7 618.5 171.2C622 142.7 649 114.3 658.5 85.8C668 57.3 660 28.7 656 14.3L652 0L900 0L900 14.3C900 28.7 900 57.3 900 85.8C900 114.3 900 142.7 900 171.2C900 199.7 900 228.3 900 257C900 285.7 900 314.3 900 343C900 371.7 900 400.3 900 428.8C900 457.3 900 485.7 900 514.2C900 542.7 900 571.3 900 585.7L900 600Z" fill="#d7b1ff"></path><path d="M637 600L633.8 585.7C630.7 571.3 624.3 542.7 625.3 514.2C626.3 485.7 634.7 457.3 649.5 428.8C664.3 400.3 685.7 371.7 683.7 343C681.7 314.3 656.3 285.7 660 257C663.7 228.3 696.3 199.7 698.2 171.2C700 142.7 671 114.3 655.5 85.8C640 57.3 638 28.7 637 14.3L636 0L900 0L900 14.3C900 28.7 900 57.3 900 85.8C900 114.3 900 142.7 900 171.2C900 199.7 900 228.3 900 257C900 285.7 900 314.3 900 343C900 371.7 900 400.3 900 428.8C900 457.3 900 485.7 900 514.2C900 542.7 900 571.3 900 585.7L900 600Z" fill="#c08bff"></path><path d="M771 600L763.8 585.7C756.7 571.3 742.3 542.7 739.2 514.2C736 485.7 744 457.3 740.5 428.8C737 400.3 722 371.7 729.3 343C736.7 314.3 766.3 285.7 773.3 257C780.3 228.3 764.7 199.7 753.7 171.2C742.7 142.7 736.3 114.3 735.5 85.8C734.7 57.3 739.3 28.7 741.7 14.3L744 0L900 0L900 14.3C900 28.7 900 57.3 900 85.8C900 114.3 900 142.7 900 171.2C900 199.7 900 228.3 900 257C900 285.7 900 314.3 900 343C900 371.7 900 400.3 900 428.8C900 457.3 900 485.7 900 514.2C900 542.7 900 571.3 900 585.7L900 600Z" fill="#a563ff"></path><path d="M834 600L824.8 585.7C815.7 571.3 797.3 542.7 793.5 514.2C789.7 485.7 800.3 457.3 808.5 428.8C816.7 400.3 822.3 371.7 824.7 343C827 314.3 826 285.7 824.3 257C822.7 228.3 820.3 199.7 822.3 171.2C824.3 142.7 830.7 114.3 824 85.8C817.3 57.3 797.7 28.7 787.8 14.3L778 0L900 0L900 14.3C900 28.7 900 57.3 900 85.8C900 114.3 900 142.7 900 171.2C900 199.7 900 228.3 900 257C900 285.7 900 314.3 900 343C900 371.7 900 400.3 900 428.8C900 457.3 900 485.7 900 514.2C900 542.7 900 571.3 900 585.7L900 600Z" fill="#8338ff"></path></svg>
